packages/foundations/assets/icons/functional/images/layout/resize_14_filled.svg

<svg width="14" height="14" viewBox="0 0 14 14" fill="none" xmlns="http://www.w3.org/2000/svg">
<g clip-path="url(#clip0_2209_4375)">
<path fill-rule="evenodd" clip-rule="evenodd" d="M4.90002 8.39999C5.25901 8.39999 5.60002 8.69313 5.60002 9.09999V11.9C5.60002 12.259 5.30943 12.6 4.90002 12.6H2.10002C1.74104 12.6 1.40002 12.3054 1.40002 11.9V9.09999C1.40002 8.74101 1.70577 8.39999 2.10002 8.39999H4.90002ZM11.2 1.39999C11.9381 1.39999 12.6 1.99696 12.6 2.79999V9.79999C12.6 10.538 12.0115 11.2 11.2 11.2H7.00002V7.69999C7.00002 7.34101 6.69632 6.99999 6.3008 6.99999H2.80002V2.79999C2.80002 2.06194 3.40205 1.39999 4.19899 1.39999H11.2Z" fill="#1A1C1F"/>
</g>
<defs>
<clipPath id="clip0_2209_4375">
<rect width="14" height="14" fill="white"/>
</clipPath>
</defs>
</svg>

<svg xmlns="http://www.w3.org/2000/svg" width="14" height="14" fill="none"><g clip-path="url(#a)"><path fill="#1A1C1F" fill-rule="evenodd" d="M4.9 8.4c.359 0 .7.293.7.7v2.8c0 .359-.29.7-.7.7H2.1a.705.705 0 0 1-.7-.7V9.1c0-.359.306-.7.7-.7zm6.3-7c.738 0 1.4.597 1.4 1.4v7c0 .738-.588 1.4-1.4 1.4H7V7.7c0-.359-.304-.7-.7-.7H2.8V2.8c0-.738.602-1.4 1.399-1.4z" clip-rule="evenodd"/></g><defs><clipPath id="a"><path fill="#fff" d="M0 0h14v14H0z"/></clipPath></defs></svg>
